v/0.4.11/design-resources/icons/wf_icons/print.svg

<?xml version="1.0" encoding="utf-8"?>
<!-- Generated by IcoMoon.io -->
<!DOCTYPE svg PUBLIC "-//W3C//DTD SVG 1.1//EN" "http://www.w3.org/Graphics/SVG/1.1/DTD/svg11.dtd">
<svg version="1.1" xmlns="http://www.w3.org/2000/svg" xmlns:xlink="http://www.w3.org/1999/xlink" width="512" height="512" viewBox="0 0 512 512">
<g>
</g>
	<path d="M128 32h256v64h-256zM480 128h-448c-17.6 0-32 14.4-32 32v160c0 17.6 14.398 32 32 32h96v128h256v-128h96c17.6 0 32-14.4 32-32v-160c0-17.6-14.4-32-32-32zM352 448h-192v-160h192v160zM487.2 176c0 12.813-10.387 23.2-23.199 23.2-12.813 0-23.201-10.387-23.201-23.2s10.388-23.2 23.201-23.2c12.813 0 23.199 10.387 23.199 23.2z" fill="#595959" />
</svg>

<svg xmlns="http://www.w3.org/2000/svg" width="512" height="512" viewBox="0 0 512 512"><path stroke="#449FDB" d="M0 0"/><path d="M128 32h256v64H128zm352 96H32c-17.6 0-32 14.4-32 32v160c0 17.6 14.398 32 32 32h96v128h256V352h96c17.6 0 32-14.4 32-32V160c0-17.6-14.4-32-32-32zM352 448H160V288h192v160zm135.2-272c0 12.813-10.387 23.2-23.2 23.2s-23.2-10.387-23.2-23.2 10.388-23.2 23.2-23.2c12.814 0 23.2 10.387 23.2 23.2z" fill="#595959"/></svg>
